icon/cg/notes.svg

<svg viewBox="0 0 24 24" fill="none" xmlns="http://www.w3.org/2000/svg" height="1em" width="1em">
  <path d="M6 6C6 5.44772 6.44772 5 7 5H17C17.5523 5 18 5.44772 18 6C18 6.55228 17.5523 7 17 7H7C6.44771 7 6 6.55228 6 6Z" fill="currentColor"/>
  <path d="M6 10C6 9.44771 6.44772 9 7 9H17C17.5523 9 18 9.44771 18 10C18 10.5523 17.5523 11 17 11H7C6.44771 11 6 10.5523 6 10Z" fill="currentColor"/>
  <path d="M7 13C6.44772 13 6 13.4477 6 14C6 14.5523 6.44771 15 7 15H17C17.5523 15 18 14.5523 18 14C18 13.4477 17.5523 13 17 13H7Z" fill="currentColor"/>
  <path d="M6 18C6 17.4477 6.44772 17 7 17H11C11.5523 17 12 17.4477 12 18C12 18.5523 11.5523 19 11 19H7C6.44772 19 6 18.5523 6 18Z" fill="currentColor"/>
  <path fill-rule="evenodd" clip-rule="evenodd" d="M2 4C2 2.34315 3.34315 1 5 1H19C20.6569 1 22 2.34315 22 4V20C22 21.6569 20.6569 23 19 23H5C3.34315 23 2 21.6569 2 20V4ZM5 3H19C19.5523 3 20 3.44771 20 4V20C20 20.5523 19.5523 21 19 21H5C4.44772 21 4 20.5523 4 20V4C4 3.44772 4.44771 3 5 3Z" fill="currentColor"/>
</svg>

<svg width="24" height="24" fill="none" xmlns="http://www.w3.org/2000/svg"><path d="M6 6a1 1 0 0 1 1-1h10a1 1 0 1 1 0 2H7a1 1 0 0 1-1-1ZM6 10a1 1 0 0 1 1-1h10a1 1 0 1 1 0 2H7a1 1 0 0 1-1-1ZM7 13a1 1 0 1 0 0 2h10a1 1 0 1 0 0-2H7ZM6 18a1 1 0 0 1 1-1h4a1 1 0 1 1 0 2H7a1 1 0 0 1-1-1Z" fill="currentColor"/><path fill-rule="evenodd" clip-rule="evenodd" d="M2 4a3 3 0 0 1 3-3h14a3 3 0 0 1 3 3v16a3 3 0 0 1-3 3H5a3 3 0 0 1-3-3V4Zm3-1h14a1 1 0 0 1 1 1v16a1 1 0 0 1-1 1H5a1 1 0 0 1-1-1V4a1 1 0 0 1 1-1Z" fill="currentColor"/></svg>
